X:774
T:Old Man Will Never Die, The
R:Reel
B:The Athole Collection
M:C|
L:1/8
K:G
GBdB e2 eg|d/c/B/A/ GB A/A/A AB|GBdB e2 ef|gagd B/B/B B2:|
~gage dedB|~gage agab|~gage degb|afgd B/B/B B2|~gage dedB|
~gage agab|gbeg degb|afgd B/B/B B2||

